icons/copy.svg

<svg width="24" height="24" viewBox="0 0 24 24" fill="none" xmlns="http://www.w3.org/2000/svg">
<path fill-rule="evenodd" clip-rule="evenodd" d="M4.2 2C2.98497 2 2 2.98497 2 4.2V15C2 16.215 2.98497 17.2 4.2 17.2H6.79999V19.8C6.79999 21.015 7.78496 22 8.99999 22H19.8C21.015 22 22 21.015 22 19.8V9C22 7.78497 21.015 6.8 19.8 6.8H17.2V4.2C17.2 2.98497 16.215 2 15 2H4.2ZM15.2 6.8V4.2C15.2 4.08954 15.1105 4 15 4H4.2C4.08954 4 4 4.08954 4 4.2V15C4 15.1105 4.08954 15.2 4.2 15.2H6.79999V9C6.79999 7.78497 7.78496 6.8 8.99999 6.8H15.2ZM8.79999 9C8.79999 8.88954 8.88953 8.8 8.99999 8.8H19.8C19.9104 8.8 20 8.88954 20 9V19.8C20 19.9105 19.9104 20 19.8 20H8.99999C8.88953 20 8.79999 19.9105 8.79999 19.8V9Z" fill="#333333"/>
</svg>

<svg xmlns="http://www.w3.org/2000/svg" width="24" height="24" fill="none" viewBox="0 0 24 24">
  <path fill="#333" fill-rule="evenodd" d="M4.2 2A2.2 2.2 0 002 4.2V15a2.2 2.2 0 002.2 2.2h2.6v2.6A2.2 2.2 0 009 22h10.8a2.2 2.2 0 002.2-2.2V9a2.2 2.2 0 00-2.2-2.2h-2.6V4.2A2.2 2.2 0 0015 2H4.2zm11 4.8V4.2A.2.2 0 0015 4H4.2a.2.2 0 00-.2.2V15c0 .11.09.2.2.2h2.6V9A2.2 2.2 0 019 6.8h6.2zM8.8 9c0-.11.09-.2.2-.2h10.8c.11 0 .2.09.2.2v10.8a.2.2 0 01-.2.2H9a.2.2 0 01-.2-.2V9z"/>
</svg>
